X: 1
T: Condon's Frolics
S: Dervish - Harmony Hill
M: 6/8
L: 1/8
R: jig
K: Bdor
fbb fga|efd cBA|d3 ede|f2e f=ga|
fbb fga|efd cBc|Ace aec|1 ~B3 B2e:|2 ~B3 B2=g||
|:fBc d2e|fed cBA|fBc d2e|f2e fba|
fBc d2e|fed cBc|Ace aec|1 ~B3 B2=g:|2 ~B3 B2e||
